X:4779
T:Old Concertina Reel, The
T:John Kelly's
O:england
R:reel
M:C|
K:Edor
B2ed BcdA|B2AF EFGA|B2ed BcdA|(3BcB AF D2FA:|
|:Beec d2fd|edBc dBA2|1 Beec d2fd|edBc ~d3A:|2 g2ge ~f3e|dBAB e3d||


